src/assets/filled/VideoCircle.svg

<?xml version="1.0" encoding="UTF-8"?>
<svg width="24" height="24" viewBox="0 0 24 24" xmlns="http://www.w3.org/2000/svg">
 <path d="m12 2c-5.52 0-10 4.48-10 10s4.48 10 10 10 10-4.48 10-10-4.48-10-10-10zm2.66 11.73-2.56 1.48c-1.65 0.95-3 0.17-3-1.73v-2.96c0-1.91 1.35-2.68 3-1.73l2.56 1.48c1.65 0.95 1.65 2.51 0 3.46z"/>
</svg>

<svg width="24" height="24" viewBox="0 0 24 24"  xmlns="http://www.w3.org/2000/svg">
<path d="M12 2C6.48 2 2 6.48 2 12C2 17.52 6.48 22 12 22C17.52 22 22 17.52 22 12C22 6.48 17.52 2 12 2ZM14.66 13.73L13.38 14.47L12.1 15.21C10.45 16.16 9.1 15.38 9.1 13.48V12V10.52C9.1 8.61 10.45 7.84 12.1 8.79L13.38 9.53L14.66 10.27C16.31 11.22 16.31 12.78 14.66 13.73Z" />
</svg>
